X: 20275
T: Joe's House
R: reel
M: 4/4
K: Amajor
|:EFAB A2EF|ABc2 ecB/A/F|EFAB A2EF|ABce f2ec|
B4 B2AB|BABc ecBA|F4 F2EF|1 ABc2 BAFA:|2 ABc2 B2AB||
|:c2Bc A2c2|Bcec effe|c2Bc A2Bc|BAFE A3B|
c2Bc A2c/B/A|Bcec efag|f3a f2ec|1 Bec/B/A BAFE:|2 Bec/B/A BAFA||

